X: 3122
T: Mr GRAY OF CARSE
Q:"Reel."
R: Reel.
%R:reel
B: James Kerr "Merry Melodies" v.3 p.15 #122
Z: 2016 John Chambers <jc:trillian.mit.edu>
M: C
L: 1/8
K: C
ua |\
g2ec d2BG | c2GE (FD)Da |\
g2ec d2BG | cGAF ECC ::\
F |\
(E/F/G) (Gc) AcGc |
FcDc dDDF |\
[2 (E/F/G) (Gc) AcGc | EGcG ECC :|\
[2 EGce FAdf | gedf ecc |]

%%sep 1 1 500
%%sep 1 1 500

